assets/Wheelchair symbol/Flat/wheelchair_symbol_flat.svg

<svg width="32" height="32" viewBox="0 0 32 32" fill="none" xmlns="http://www.w3.org/2000/svg">
<path d="M2 6C2 3.79086 3.79086 2 6 2H26C28.2091 2 30 3.79086 30 6V26C30 28.2091 28.2091 30 26 30H6C3.79086 30 2 28.2091 2 26V6Z" fill="#00A6ED"/>
<path d="M23 8C23 9.10457 22.1046 10 21 10C19.8954 10 19 9.10457 19 8C19 6.89543 19.8954 6 21 6C22.1046 6 23 6.89543 23 8Z" fill="white"/>
<path d="M17 19C17 21.2091 15.2091 23 13 23C10.7909 23 9 21.2091 9 19C9 16.8409 10.7106 15.0814 12.8505 15.0027C12.9424 14.9994 13.0272 14.9495 13.0708 14.8685L13.8697 13.3849C13.9528 13.2306 13.8554 13.0413 13.6808 13.0271C13.4607 13.0092 13.2337 13 13 13C9.68629 13 7 15.6863 7 19C7 22.3137 9.68629 25 13 25C16.245 25 18.8883 22.424 18.9966 19.2053C19.0006 19.0862 18.9159 18.9832 18.799 18.9598L17.3071 18.6614C17.1456 18.6291 16.9975 18.7591 16.9995 18.9237C16.9998 18.949 17 18.9744 17 19Z" fill="white"/>
<path d="M14.79 10.957C15.6534 10.6954 16.0348 10.6597 16.5862 10.9104C16.6829 10.9543 16.8417 11.0699 17.0386 11.2702C17.1226 11.3556 17.2028 11.4452 17.2764 11.5327L15.0901 14.8121C14.4912 15.7104 15.0089 16.9271 16.07 17.12L20.8211 17.9839C20.8871 17.9959 21.0224 18.0486 21.2029 18.3323C21.3863 18.6205 21.5471 19.0455 21.6741 19.5738C21.9266 20.624 21.9881 21.8292 21.9998 22.5044C22.0137 23.311 22.6665 24 23.5134 24H24.4972L24.5 24C25.0523 24 25.5 23.5523 25.5 23C25.5 22.4477 25.0523 22 24.5 22H23.9857C23.9545 21.2369 23.8658 20.134 23.6187 19.1063C23.4673 18.4767 23.242 17.8113 22.8903 17.2586C22.5357 16.7015 21.987 16.1631 21.1789 16.0161L17.1763 15.2884L19.1502 12.3274C19.4773 11.8368 19.503 11.1604 19.116 10.6373C18.9656 10.434 18.7378 10.1457 18.4646 9.86788C18.2036 9.60244 17.8408 9.28373 17.4138 9.08963C16.1876 8.53226 15.2153 8.73832 14.21 9.04297C13.4058 9.28666 12.774 9.77389 12.3661 10.1576C12.1566 10.3547 11.9917 10.5383 11.8775 10.6747C11.8201 10.7432 11.7748 10.8007 11.7423 10.8433C11.726 10.8646 11.7129 10.8822 11.703 10.8956L11.6966 10.9044C11.5731 11.0708 11.5 11.2769 11.5 11.5C11.5 12.0523 11.9477 12.5 12.5 12.5C12.8376 12.5 13.1362 12.3327 13.3173 12.0764C13.3201 12.0725 13.3249 12.0661 13.3314 12.0576C13.3476 12.0365 13.3743 12.0023 13.411 11.9586C13.4848 11.8704 13.5956 11.7469 13.7365 11.6143C14.0295 11.3387 14.3976 11.0759 14.79 10.957Z" fill="white"/>
</svg>

<svg xmlns="http://www.w3.org/2000/svg" width="32" height="32" fill="none"><path fill="#00A6ED" d="M2 6a4 4 0 0 1 4-4h20a4 4 0 0 1 4 4v20a4 4 0 0 1-4 4H6a4 4 0 0 1-4-4V6Z"/><path fill="#fff" d="M23 8a2 2 0 1 1-4 0 2 2 0 0 1 4 0ZM17 19a4 4 0 1 1-4.15-3.997.26.26 0 0 0 .22-.135l.8-1.483a.241.241 0 0 0-.19-.358A8.4 8.4 0 0 0 13 13a6 6 0 1 0 5.997 6.205.244.244 0 0 0-.198-.245l-1.492-.299a.26.26 0 0 0-.307.263V19Z"/><path fill="#fff" d="M14.79 10.957c.863-.262 1.245-.297 1.796-.047.097.044.256.16.453.36.084.086.164.175.237.263l-2.186 3.28a1.5 1.5 0 0 0 .98 2.307l4.751.864c.066.012.201.065.382.348.183.288.344.713.471 1.242.253 1.05.314 2.255.326 2.93A1.52 1.52 0 0 0 23.513 24h.987a1 1 0 1 0 0-2h-.514c-.032-.763-.12-1.866-.367-2.894-.152-.63-.377-1.295-.729-1.847-.354-.558-.903-1.096-1.711-1.243l-4.003-.728 1.974-2.96a1.469 1.469 0 0 0-.034-1.69 7.366 7.366 0 0 0-.651-.77c-.261-.266-.624-.584-1.051-.778-1.226-.558-2.199-.352-3.204-.047-.804.244-1.436.73-1.844 1.115a6.04 6.04 0 0 0-.663.738l-.006.008a1 1 0 1 0 1.635 1.153c.016-.02.042-.055.079-.098a4.04 4.04 0 0 1 .325-.345c.293-.275.662-.538 1.054-.657Z"/></svg>
